assets/mqtizer_logo_org.svg

<svg width="652" height="652" fill="none" xmlns="http://www.w3.org/2000/svg"><g filter="url(#prefix__prefix__filter0_dd_23_411)"><circle cx="326" cy="318" r="307.5" fill="#353D69" stroke="#FEEBCC"/><circle cx="326" cy="318" r="275.2" stroke="#FEEBCC" stroke-width="4"/><g filter="url(#prefix__prefix__filter1_d_23_411)"><path d="M322.917 333.244l155.552 155.552-91.771.917 28.449-28.449-110.125-110.125 17.895-17.895z" fill="#FEEBCC"/></g><g filter="url(#prefix__prefix__filter2_d_23_411)"><path d="M488.538 480.59L332.987 325.038l91.771-.917-28.449 28.449 110.125 110.125-17.896 17.895z" fill="#FEEBCC"/></g><g filter="url(#prefix__prefix__filter3_d_23_411)"><path d="M424.56 309.854h-24.955V193.039H177.94V426.67h188.127v25.31H151.98v-284.9h272.58v142.774z" fill="#FEEBCC"/></g></g></svg>

<svg width="652" height="652" viewBox="0 0 652 652" fill="none" xmlns="http://www.w3.org/2000/svg">
<g filter="url(#filter0_dd_23_411)">
<circle cx="326" cy="318" r="307.5" fill="#353D69" stroke="#FEEBCC"/>
<circle cx="326" cy="318" r="275.2" stroke="#FEEBCC" stroke-width="4"/>
<g filter="url(#filter1_d_23_411)">
<path d="M322.917 333.244L478.469 488.796L386.698 489.713L415.147 461.264L305.022 351.139L322.917 333.244Z" fill="#FEEBCC"/>
</g>
<g filter="url(#filter2_d_23_411)">
<path d="M488.538 480.59L332.987 325.038L424.758 324.121L396.309 352.57L506.434 462.695L488.538 480.59Z" fill="#FEEBCC"/>
</g>
<g filter="url(#filter3_d_23_411)">
<path d="M424.56 309.854H399.605V193.039H177.94V426.67H366.067V451.98H151.98V167.08H424.56V309.854Z" fill="#FEEBCC"/>
</g>
</g>
<defs>
<filter id="filter0_dd_23_411" x="0" y="0" width="652" height="652" filterUnits="userSpaceOnUse" color-interpolation-filters="sRGB">
<feFlood flood-opacity="0" result="BackgroundImageFix"/>
<feColorMatrix in="SourceAlpha" type="matrix" values="0 0 0 0 0 0 0 0 0 0 0 0 0 0 0 0 0 0 127 0" result="hardAlpha"/>
<feOffset dy="4"/>
<feGaussianBlur stdDeviation="2"/>
<feColorMatrix type="matrix" values="0 0 0 0 0 0 0 0 0 0 0 0 0 0 0 0 0 0 0.3 0"/>
<feBlend mode="normal" in2="BackgroundImageFix" result="effect1_dropShadow_23_411"/>
<feColorMatrix in="SourceAlpha" type="matrix" values="0 0 0 0 0 0 0 0 0 0 0 0 0 0 0 0 0 0 127 0" result="hardAlpha"/>
<feMorphology radius="6" operator="dilate" in="SourceAlpha" result="effect2_dropShadow_23_411"/>
<feOffset dy="8"/>
<feGaussianBlur stdDeviation="6"/>
<feColorMatrix type="matrix" values="0 0 0 0 0 0 0 0 0 0 0 0 0 0 0 0 0 0 0.15 0"/>
<feBlend mode="normal" in2="effect1_dropShadow_23_411" result="effect2_dropShadow_23_411"/>
<feBlend mode="normal" in="SourceGraphic" in2="effect2_dropShadow_23_411" result="shape"/>
</filter>
<filter id="filter1_d_23_411" x="301.022" y="333.244" width="181.447" height="164.469" filterUnits="userSpaceOnUse" color-interpolation-filters="sRGB">
<feFlood flood-opacity="0" result="BackgroundImageFix"/>
<feColorMatrix in="SourceAlpha" type="matrix" values="0 0 0 0 0 0 0 0 0 0 0 0 0 0 0 0 0 0 127 0" result="hardAlpha"/>
<feOffset dy="4"/>
<feGaussianBlur stdDeviation="2"/>
<feColorMatrix type="matrix" values="0 0 0 0 0 0 0 0 0 0 0 0 0 0 0 0 0 0 0.25 0"/>
<feBlend mode="normal" in2="BackgroundImageFix" result="effect1_dropShadow_23_411"/>
<feBlend mode="normal" in="SourceGraphic" in2="effect1_dropShadow_23_411" result="shape"/>
</filter>
<filter id="filter2_d_23_411" x="328.987" y="324.121" width="181.447" height="164.469" filterUnits="userSpaceOnUse" color-interpolation-filters="sRGB">
<feFlood flood-opacity="0" result="BackgroundImageFix"/>
<feColorMatrix in="SourceAlpha" type="matrix" values="0 0 0 0 0 0 0 0 0 0 0 0 0 0 0 0 0 0 127 0" result="hardAlpha"/>
<feOffset dy="4"/>
<feGaussianBlur stdDeviation="2"/>
<feColorMatrix type="matrix" values="0 0 0 0 0 0 0 0 0 0 0 0 0 0 0 0 0 0 0.25 0"/>
<feBlend mode="normal" in2="BackgroundImageFix" result="effect1_dropShadow_23_411"/>
<feBlend mode="normal" in="SourceGraphic" in2="effect1_dropShadow_23_411" result="shape"/>
</filter>
<filter id="filter3_d_23_411" x="147.98" y="167.08" width="280.58" height="292.9" filterUnits="userSpaceOnUse" color-interpolation-filters="sRGB">
<feFlood flood-opacity="0" result="BackgroundImageFix"/>
<feColorMatrix in="SourceAlpha" type="matrix" values="0 0 0 0 0 0 0 0 0 0 0 0 0 0 0 0 0 0 127 0" result="hardAlpha"/>
<feOffset dy="4"/>
<feGaussianBlur stdDeviation="2"/>
<feColorMatrix type="matrix" values="0 0 0 0 0 0 0 0 0 0 0 0 0 0 0 0 0 0 0.25 0"/>
<feBlend mode="normal" in2="BackgroundImageFix" result="effect1_dropShadow_23_411"/>
<feBlend mode="normal" in="SourceGraphic" in2="effect1_dropShadow_23_411" result="shape"/>
</filter>
</defs>
</svg>
